X: 1
T:The Machine Without Horses
M:6/8
L:1/8
Q:180
K:G
DG3/2A/ B/c/dB|GGg edB|Gce cdB|dAB GFE|DG3/2A/ B/c/dB|GGg fef|gaf dge|^cd3d2|D
W: G C G C G Am D7 G G Am7 D A D
G3/2A/ B/c/dB|GGg edB|Gce cdB|dAB GFE|DG3/2A/ B/c/dB|GGg fef|gaf dge|^cd3d2|z
W: G C G C G Am D7 G G Am7 D A D
dB ddB|dcA ccA|cBd gdB|GAB GFE|DdB ddB|dcA ccA|cBd gdB|GcA FG3
W: G Am G D G Am G D G
dB ddB|dcA ccA|cBd gdB|GAB GFE|DGD GBG|BdB dg2|def gag|fg3A2|z6|g3 G2
W: G Am G Am D G G Em C D7 G A7 G
